exported-svg/mic.svg

<svg height="24" viewBox="0 0 24 24" width="24" xmlns="http://www.w3.org/2000/svg"><path d="m12.5 1c1.9329966 0 3.5 1.56700338 3.5 3.5v8c0 1.9329966-1.5670034 3.5-3.5 3.5s-3.5-1.5670034-3.5-3.5v-8c0-1.93299662 1.5670034-3.5 3.5-3.5zm0 1c-1.3807119 0-2.5 1.11928813-2.5 2.5v8c0 1.3807119 1.1192881 2.5 2.5 2.5s2.5-1.1192881 2.5-2.5v-8c0-1.38071187-1.1192881-2.5-2.5-2.5zm-.5 21v-3.0164023c-3.90901587-.257293-7-3.5094764-7-7.4835977v-2c0-.2761424.22385763-.5.5-.5s.5.2238576.5.5v2c0 3.5898508 2.91014917 6.5 6.5 6.5 3.5898508 0 6.5-2.9101492 6.5-6.5v-2c0-.2761424.2238576-.5.5-.5s.5.2238576.5.5v2c0 3.9741213-3.0909841 7.2263047-7 7.4835977v3.0164023h3.5c.2761424 0 .5.2238576.5.5s-.2238576.5-.5.5h-8c-.27614237 0-.5-.2238576-.5-.5s.22385763-.5.5-.5z"/></svg>

<?xml version="1.0" encoding="UTF-8"?>
<svg width="24px" height="24px" viewBox="0 0 24 24" version="1.1" xmlns="http://www.w3.org/2000/svg" xmlns:xlink="http://www.w3.org/1999/xlink">
    <!-- Generator: Sketch 55.2 (78181) - https://sketchapp.com -->
    <title>mic</title>
    <desc>Created with Sketch.</desc>
    <g id="mic" stroke="none" stroke-width="1" fill="none" fill-rule="evenodd">
        <path d="M12.5,1 C14.4329966,1 16,2.56700338 16,4.5 L16,12.5 C16,14.4329966 14.4329966,16 12.5,16 C10.5670034,16 9,14.4329966 9,12.5 L9,4.5 C9,2.56700338 10.5670034,1 12.5,1 Z M12.5,2 C11.1192881,2 10,3.11928813 10,4.5 L10,12.5 C10,13.8807119 11.1192881,15 12.5,15 C13.8807119,15 15,13.8807119 15,12.5 L15,4.5 C15,3.11928813 13.8807119,2 12.5,2 Z M12,23 L12,19.9835977 C8.09098413,19.7263047 5,16.4741213 5,12.5 L5,10.5 C5,10.2238576 5.22385763,10 5.5,10 C5.77614237,10 6,10.2238576 6,10.5 L6,12.5 C6,16.0898508 8.91014917,19 12.5,19 C16.0898508,19 19,16.0898508 19,12.5 L19,10.5 C19,10.2238576 19.2238576,10 19.5,10 C19.7761424,10 20,10.2238576 20,10.5 L20,12.5 C20,16.4741213 16.9090159,19.7263047 13,19.9835977 L13,23 L16.5,23 C16.7761424,23 17,23.2238576 17,23.5 C17,23.7761424 16.7761424,24 16.5,24 L8.5,24 C8.22385763,24 8,23.7761424 8,23.5 C8,23.2238576 8.22385763,23 8.5,23 L12,23 Z" id="Combined-Shape" fill="#000000" fill-rule="nonzero"></path>
    </g>
</svg>
